img/subtract-15.svg

<svg fill="none" height="25" viewBox="0 0 24 25" width="24" xmlns="http://www.w3.org/2000/svg"><path clip-rule="evenodd" d="m16.7623 19.0628c3.0071-.3591 5.6254-2.2119 5.9545-3.9049.5185-2.6669.4757-6.50818.4757-6.50818 0-5.20633-3.411-6.73239-3.411-6.73239-1.7199-.78992-4.6732-1.122103-7.7415-1.147188h-.0754c-3.06827.025085-6.01966.357268-7.73967 1.147188 0 0-3.411194 1.52606-3.411194 6.73239 0 .31563-.001631.64761-.003329.99321-.004717.95977-.00995 2.02467.017812 3.13617.123874 5.0915.933451 10.1094 5.640931 11.3554 2.17051.5745 4.03405.6948 5.53485.6123 2.7218-.1509 4.2496-.9714 4.2496-.9714l-.0897-1.9747s-1.945.6133-4.1293.5385c-2.16422-.0742-4.44891-.2334-4.79894-2.8904-.03232-.2334-.04848-.483-.04848-.7451 0 0 2.12448.5193 4.81682.6426 1.6464.0756 3.1903-.0964 4.7583-.2835zm2.4067-3.7053v-6.30402c0-1.28839-.3281-2.31223-.9869-3.0697-.6796-.75746-1.5695-1.14577-2.674-1.14577-1.2782 0-2.246.49123-2.8858 1.47382l-.6222 1.04284-.6221-1.04284c-.6399-.98259-1.60779-1.47382-2.88584-1.47382-1.10466 0-1.99453.38831-2.67403 1.14577-.65894.75747-.98698 1.78131-.98698 3.0697v6.30402h2.49752v-6.11872c0-1.28982.54269-1.94449 1.62821-1.94449 1.20022 0 1.80182.7766 1.80182 2.31223v3.34908h2.4828v-3.34908c0-1.53563.6016-2.31223 1.8018-2.31223 1.0855 0 1.6282.65467 1.6282 1.94449v6.11872z" fill="#000" fill-rule="evenodd"/></svg>

<svg width="24" height="25" viewBox="0 0 24 25" fill="none" xmlns="http://www.w3.org/2000/svg">
<path fill-rule="evenodd" clip-rule="evenodd" d="M16.7623 19.0628C19.7694 18.7037 22.3877 16.8509 22.7168 15.1579C23.2353 12.491 23.1925 8.64972 23.1925 8.64972C23.1925 3.44339 19.7815 1.91733 19.7815 1.91733C18.0616 1.12741 15.1083 0.795227 12.04 0.770142H11.9646C8.89633 0.795227 5.94494 1.12741 4.22493 1.91733C4.22493 1.91733 0.813736 3.44339 0.813736 8.64972C0.813736 8.96535 0.812105 9.29733 0.810407 9.64293C0.80569 10.6027 0.800457 11.6676 0.828219 12.7791C0.952093 17.8706 1.76167 22.8885 6.46915 24.1345C8.63966 24.709 10.5032 24.8293 12.004 24.7468C14.7258 24.5959 16.2536 23.7754 16.2536 23.7754L16.1639 21.8007C16.1639 21.8007 14.2189 22.414 12.0346 22.3392C9.87038 22.265 7.58569 22.1058 7.23566 19.4488C7.20334 19.2154 7.18718 18.9658 7.18718 18.7037C7.18718 18.7037 9.31166 19.223 12.004 19.3463C13.6504 19.4219 15.1943 19.2499 16.7623 19.0628ZM19.169 15.3575V9.05348C19.169 7.76509 18.8409 6.74125 18.1821 5.98378C17.5025 5.22632 16.6126 4.83801 15.5081 4.83801C14.2299 4.83801 13.2621 5.32924 12.6223 6.31183L12.0001 7.35467L11.378 6.31183C10.7381 5.32924 9.77021 4.83801 8.49216 4.83801C7.3875 4.83801 6.49763 5.22632 5.81813 5.98378C5.15919 6.74125 4.83115 7.76509 4.83115 9.05348V15.3575H7.32867V9.23878C7.32867 7.94896 7.87136 7.29429 8.95688 7.29429C10.1571 7.29429 10.7587 8.07089 10.7587 9.60652V12.9556H13.2415V9.60652C13.2415 8.07089 13.8431 7.29429 15.0433 7.29429C16.1288 7.29429 16.6715 7.94896 16.6715 9.23878V15.3575H19.169Z" fill="black"/>
</svg>
